_assets/img/icons/community-forums.svg

<svg xmlns="http://www.w3.org/2000/svg" xmlns:xlink="http://www.w3.org/1999/xlink" width="24" height="24" viewBox="0 0 24 24">
  <defs>
    <path id="community-forums-a" d="M17,8 L20.577,8 C21.9145007,8.00165294 22.9983471,9.08549932 23,10.423 L23,16.577 C22.9983471,17.9145007 21.9145007,18.9983471 20.577,19 L14.74,19 L11.774,22.633 C11.5063839,22.9601314 11.0620008,23.0836914 10.6639327,22.9416524 C10.2658645,22.7996134 10.0000784,22.4226503 10,22 L10,19 L9.423,19 C8.08549932,18.9983471 7.00165294,17.9145007 7,16.577 L7,16.1312947 L5.774,17.633 C5.50638389,17.9601314 5.06200081,18.0836914 4.66393266,17.9416524 C4.26586451,17.7996134 4.00007843,17.4226503 4,17 L4,14 L3.423,14 C2.08549932,13.9983471 1.00165294,12.9145007 1,11.577 L1,5.423 C1.00165294,4.08549932 2.08549932,3.00165294 3.423,3 L14.577,3 C15.9145007,3.00165294 16.9983471,4.08549932 17,5.423 L17,8 Z M15,8 L15,5.423 C15,5.18938355 14.8106164,5 14.577,5 L3.423,5 C3.18938355,5 3,5.18938355 3,5.423 L3,11.577 C3,11.6891866 3.04456594,11.7967783 3.12389383,11.8761062 C3.20322172,11.9554341 3.31081342,12 3.423,12 L5,12 C5.55228475,12 6,12.4477153 6,13 L6,14.194 L7,12.9686479 L7,10.423 C7.00165294,9.08549932 8.08549932,8.00165294 9.423,8 L15,8 Z M9,12 L9,14 L9,16.577 C9,16.6891866 9.04456594,16.7967783 9.12389383,16.8761062 C9.20322172,16.9554341 9.31081342,17 9.423,17 L11,17 C11.5522847,17 12,17.4477153 12,18 L12,19.194 L13.491,17.367 C13.6811137,17.1344928 13.9656623,16.9997453 14.266,17 L20.577,17 C20.6891866,17 20.7967783,16.9554341 20.8761062,16.8761062 C20.9554341,16.7967783 21,16.6891866 21,16.577 L21,10.423 C21,10.1893836 20.8106164,10 20.577,10 L9.423,10 C9.18938355,10 9,10.1893836 9,10.423 L9,12 Z"/>
  </defs>
  <g fill="none" fill-rule="evenodd">
    <mask id="community-forums-b" fill="#fff">
      <use xlink:href="#community-forums-a"/>
    </mask>
    <use fill="#0060DF" fill-rule="nonzero" xlink:href="#community-forums-a"/>
    <g fill="#0060DF" fill-rule="nonzero" mask="url(#community-forums-b)">
      <rect width="24" height="24"/>
    </g>
  </g>
</svg>

<svg id="Layer_1" data-name="Layer 1" xmlns="http://www.w3.org/2000/svg" width="24" height="24" viewBox="0 0 24 24">
  <title>community-forums</title>
  <path d="M17,8h3.58A2.43,2.43,0,0,1,23,10.42v6.16A2.43,2.43,0,0,1,20.58,19H14.74l-3,3.63a1,1,0,0,1-1.11.31A1,1,0,0,1,10,22V19H9.42A2.43,2.43,0,0,1,7,16.58v-.45l-1.23,1.5a1,1,0,0,1-1.11.31A1,1,0,0,1,4,17V14H3.42A2.43,2.43,0,0,1,1,11.58V5.42A2.43,2.43,0,0,1,3.42,3H14.58A2.43,2.43,0,0,1,17,5.42ZM15,8V5.42A.42.42,0,0,0,14.58,5H3.42A.42.42,0,0,0,3,5.42v6.16a.41.41,0,0,0,.42.42H5a1,1,0,0,1,1,1v1.19L7,13V10.42A2.43,2.43,0,0,1,9.42,8ZM9,12v4.58a.41.41,0,0,0,.42.42H11a1,1,0,0,1,1,1v1.19l1.49-1.82a1,1,0,0,1,.78-.37h6.31a.41.41,0,0,0,.42-.42V10.42a.42.42,0,0,0-.42-.42H9.42a.42.42,0,0,0-.42.42Z"/>
</svg>
